svgs/light/dice-d12.svg

<svg xmlns="http://www.w3.org/2000/svg" viewBox="0 0 512 512"><!-- Font Awesome Pro 6.0.0-alpha2 by @fontawesome - https://fontawesome.com License - https://fontawesome.com/license (Commercial License) --><path d="M505.25 178.5L457.5 83.125C451.375 70.75 441.25 60.625 428.875 54.5L333.5 6.75C324.625 2.25 314.875 0 304.875 0H207.125C197.125 0 187.375 2.25 178.5 6.75L83.125 54.5C70.75 60.625 60.625 70.75 54.5 83.125L6.75 178.5C2.25 187.375 0 197.125 0 207.125V304.875C0 314.875 2.25 324.625 6.75 333.5L54.5 428.875C60.625 441.25 70.75 451.375 83.125 457.5L178.5 505.25C187.375 509.625 197.125 512 207.125 512H304.875C314.875 512 324.625 509.75 333.5 505.25L428.875 457.5C441.25 451.375 451.375 441.25 457.5 428.875L505.25 333.5C509.625 324.625 512 314.875 512 304.875V207.125C512 197.125 509.75 187.375 505.25 178.5ZM475.75 190.875L380.125 300.125L272 246.125V140.25L429 97.375L475.75 190.875ZM308.75 480H203.25L147.875 328L256 273.875L364.125 328L308.75 480ZM199.5 32H312.5L395.25 73.375L256 111.375L116.75 73.375L199.5 32ZM83 97.375L240 140.25V246.125L131.875 300.125L36.25 190.875L83 97.375ZM32 312.5V234.625L113.999 328.25L162.375 461.375L87.875 424.125L32 312.5ZM424.125 424.125L349.625 461.375L397.999 328.25L480 234.625V312.5L424.125 424.125Z "></path></svg>

<svg xmlns="http://www.w3.org/2000/svg" viewBox="0 0 512 512"><!--! Font Awesome Pro 6.3.0 by @fontawesome - https://fontawesome.com License - https://fontawesome.com/license (Commercial License) Copyright 2023 Fonticons, Inc. --><path d="M505.3 178.5l-47.73-95.39c-6.125-12.37-16.25-22.5-28.62-28.62l-95.39-47.73C324.6 2.25 314.9 0 304.9 0H207.1c-10 0-19.75 2.25-28.62 6.75L83.11 54.48C70.73 60.61 60.61 70.73 54.48 83.11l-47.73 95.39C2.25 187.4 0 197.1 0 207.1v97.77c0 10 2.25 19.75 6.75 28.62l47.73 95.4c6.125 12.37 16.25 22.5 28.62 28.62l95.4 47.73C187.4 509.6 197.1 512 207.1 512h97.75c10 0 19.75-2.25 28.62-6.75l95.4-47.73c12.37-6.125 22.5-16.25 28.62-28.62l47.73-95.38C509.6 324.6 512 314.9 512 304.9V207.1C512 197.1 509.8 187.4 505.3 178.5zM475.8 190.9l-95.63 109.2L272 246.1V140.2l157-42.87L475.8 190.9zM308.8 480h-105.5l-55.37-152L256 273.9L364.1 328L308.8 480zM199.5 32h113l82.75 41.38L256 111.4l-139.2-38L199.5 32zM83 97.38L240 140.2v105.9l-108.1 54L36.25 190.9L83 97.38zM32 312.5V234.6l81.96 93.83l48.42 132.9l-74.5-37.25L32 312.5zM424.1 424.1l-74.5 37.25l48.42-132.9L480 234.6V312.5L424.1 424.1z"/></svg>
